!!!OTL: Was schleicht dort im naechtlichen Walde
!!!OTL-incipit: Was schleicht dort im naechtlichen Walde so einsam wildernd umher
!!!ARE: Europa, Mitteleuropa, Deutschland, Hohegeiss  Harz
!!!SCT: D0233
!!!TXL: @@DE
!!!YEM: Copyright 1995, estate of Helmut Schaffrath.
**kern	**text
*ICvox	*
*M6/8	*
*k[]	*
*C:	*
{8g	Was
=1	=1
8g	schleicht
8g	dort
8g	im
8a	nächtlichen
8a	.
8a	.
=2	=2
8g	Walde
[4g	.
4g]}	so
{8g	ein-
=3	=3
4cc	.
8cc	-sam
8dd	wildernd
8dd	.
8cc	einher
=4	=4
[4.b	.
4b]}	.
{8g	und
=5	=5
4dd	hält
8ee	in
8.eeL	seiner
16ffJ	.
8cc	.
=6	=6
8b	Rechten
[4b	.
4b]}	.
{8a	so
=7	=7
4g	krampfhaft
8g	.
8a	fest
8g	sein
8f	Gewehr?
=8	=8
[4.e	.
4e]}	.
{8cc	und
=9	=9
8ddL	hält
8ccJ	.
8a	in
8ddL	seiner
8ccJ	.
8a	.
=10	=10
8a	Rechten
[4g	.
4g]}	.
{8cc	so
=11	=11
4b	krampfhafr
8g	.
8ee	fest
8ee	sein
8dd	Gewehr?
=12	=12
[4.cc	.
4cc]}	.
==	==
!!!AGN: Jaeger - Lied, Wilderer
!! Inzipit = Variante zum Lied
!!!ONB: ESAC (Essen Associative Code) Database: DVA
!!!AMT: compound duple
!!!AIN: vox
!!!EED: Helmut Schaffrath
!!!EEV: 1.0
!!!YOR: https://freidok.uni-freiburg.de/data/150373
!!!EFL: A218586
!!!ENC: Anna Maria Matuszewska
!!!EEV: 2025/06/04
*-	*-
